svgs/user_icon.svg

<svg width="32" height="32" viewBox="0 0 32 32" fill="none" xmlns="http://www.w3.org/2000/svg">
<rect width="32" height="32" fill="white"/>
<path d="M16.4748 16.2421C13.099 16.2421 10.3538 13.4969 10.3538 10.121C10.3538 6.74521 13.099 4 16.4748 4C19.8506 4 22.5959 6.74521 22.5959 10.121C22.5959 13.4969 19.8477 16.2421 16.4748 16.2421ZM16.4748 4.48309C13.3651 4.48309 10.8368 7.01135 10.8368 10.121C10.8368 13.2307 13.368 15.759 16.4748 15.759C19.5845 15.759 22.1128 13.2307 22.1128 10.121C22.1128 7.01135 19.5845 4.48309 16.4748 4.48309Z" fill="black" stroke="black"/>
<path d="M6.48309 27.9999C6.56408 22.5558 11.0131 18.153 16.4746 18.153C21.9361 18.153 26.3852 22.5587 26.4662 27.9999H26.9492C26.8682 22.2896 22.2023 17.6699 16.4746 17.6699C10.747 17.6699 6.081 22.2925 6 27.9999H6.48309Z" fill="black" stroke="black"/>
</svg>

<svg xmlns="http://www.w3.org/2000/svg" width="32" height="32" fill="none"><path fill="#fff" d="M0 0h32v32H0z"/><path fill="#000" stroke="#000" d="M16.475 16.242a6.127 6.127 0 0 1-6.121-6.121A6.127 6.127 0 0 1 16.474 4a6.127 6.127 0 0 1 6.122 6.121 6.13 6.13 0 0 1-6.121 6.121Zm0-11.759a5.643 5.643 0 0 0-5.638 5.638 5.645 5.645 0 0 0 5.638 5.638 5.643 5.643 0 0 0 5.638-5.638 5.643 5.643 0 0 0-5.638-5.638ZM6.483 28c.081-5.444 4.53-9.847 9.992-9.847 5.461 0 9.91 4.406 9.991 9.847h.483c-.08-5.71-4.747-10.33-10.474-10.33S6.08 22.292 6 28z"/></svg>
